icons/blender/blender-original.svg

<?xml version="1.0" encoding="UTF-8" standalone="no"?>
<svg
   width="128px"
   height="128px"
   viewBox="0 0 128 104"
   version="1.1"
   id="svg16"
   sodipodi:docname="blender-original.svg"
   inkscape:version="1.1.1 (c3084ef, 2021-09-22)"
   xmlns:inkscape="http://www.inkscape.org/namespaces/inkscape"
   xmlns:sodipodi="http://sodipodi.sourceforge.net/DTD/sodipodi-0.dtd"
   xmlns="http://www.w3.org/2000/svg"
   xmlns:svg="http://www.w3.org/2000/svg">
  <defs
     id="defs20" />
  <sodipodi:namedview
     id="namedview18"
     pagecolor="#ffffff"
     bordercolor="#666666"
     borderopacity="1.0"
     inkscape:pageshadow="2"
     inkscape:pageopacity="0.0"
     inkscape:pagecheckerboard="true"
     showgrid="false"
     inkscape:zoom="5.6171875"
     inkscape:cx="64"
     inkscape:cy="64"
     inkscape:window-width="1670"
     inkscape:window-height="987"
     inkscape:window-x="1121"
     inkscape:window-y="30"
     inkscape:window-maximized="0"
     inkscape:current-layer="svg16" />
  <g
     id="surface1"
     transform="matrix(1.0233682,0,0,1.0233682,-1.4976746,-0.58803322)">
    <path
       style="fill:#235785;fill-opacity:1;fill-rule:nonzero;stroke:none"
       d="m 66.28125,57.28125 c 0.234375,-4.144531 2.273438,-7.804688 5.359375,-10.390625 3.023437,-2.542969 7.082031,-4.097656 11.539063,-4.097656 4.433593,0 8.492187,1.554687 11.511718,4.097656 3.089844,2.585937 5.117188,6.246094 5.359374,10.390625 0.23438,4.25 -1.48828,8.21875 -4.499999,11.15625 -3.085937,2.980469 -7.453125,4.863281 -12.371093,4.863281 -4.921876,0 -9.308594,-1.871093 -12.375,-4.863281 -3.023438,-2.9375 -4.742188,-6.882812 -4.5,-11.136719 z m 0,0"
       id="path11" />
    <path
       style="fill:#e87500;fill-opacity:1;fill-rule:nonzero;stroke:none"
       d="m 39.8125,66.046875 c 0.02734,1.621094 0.550781,4.777344 1.328125,7.234375 1.644531,5.214844 4.433594,10.039062 8.296875,14.265625 3.96875,4.363281 8.867188,7.871094 14.511719,10.367187 5.933593,2.609378 12.375,3.945318 19.058593,3.945318 6.683594,-0.008 13.125,-1.36719 19.058598,-4.007818 5.64453,-2.523437 10.54297,-6.027343 14.51172,-10.414062 3.88281,-4.273438 6.66406,-9.09375 8.29687,-14.3125 0.82422,-2.628906 1.34766,-5.300781 1.55859,-7.976562 0.20313,-2.628907 0.11719,-5.28125 -0.25781,-7.933594 -0.73828,-5.152344 -2.53906,-9.996094 -5.29297,-14.378906 -2.51562,-4.054688 -5.78125,-7.582032 -9.66406,-10.566407 l 0.0117,-0.0039 L 72.1875,2.457031 C 72.152344,2.429688 72.121094,2.402344 72.085938,2.378906 69.527344,0.421875 65.203125,0.429688 62.402344,2.386719 59.554688,4.371094 59.226562,7.648438 61.761719,9.710938 L 61.75,9.71875 78.050781,22.894531 28.421875,22.945312 h -0.06641 c -4.101563,0.0039 -8.050781,2.675782 -8.824219,6.070313 -0.800781,3.441406 1.988281,6.3125 6.265625,6.3125 l -0.0078,0.01563 25.148438,-0.04687 -45,34.191406 c -0.054688,0.04297 -0.117188,0.08594 -0.171875,0.128907 -4.234375,3.21875 -5.601563,8.589843 -2.933594,11.964843 2.714844,3.441407 8.46875,3.464844 12.75,0.01953 L 40.066406,61.65625 c 0,0 -0.359375,2.695312 -0.328125,4.296875 z m 63.08594,9.007813 c -5.050784,5.109374 -12.132815,8.023437 -19.765628,8.023437 -7.652343,0.01172 -14.734374,-2.851563 -19.785156,-7.957031 -2.46875,-2.5 -4.277344,-5.347656 -5.402344,-8.394532 -1.097656,-3.003906 -1.523437,-6.179687 -1.242187,-9.382812 0.269531,-3.132812 1.207031,-6.136719 2.714844,-8.832031 1.472656,-2.652344 3.507812,-5.0625 6,-7.101563 4.917969,-3.964844 11.160156,-6.136718 17.6875,-6.136718 6.554687,-0.0078 12.796875,2.125 17.714841,6.09375 2.49219,2.027343 4.51953,4.425781 6,7.078124 1.50391,2.699219 2.44922,5.679688 2.71094,8.835938 0.27734,3.199219 -0.14844,6.375 -1.24219,9.378906 -1.12109,3.070313 -2.93359,5.917969 -5.40625,8.417969 z m 0,0"
       id="path13" />
  </g>
</svg>

<?xml version="1.0" encoding="UTF-8"?>
<svg xmlns="http://www.w3.org/2000/svg" xmlns:xlink="http://www.w3.org/1999/xlink" width="128px" height="128px" viewBox="0 0 128 104" version="1.1">
<g id="surface1">
<path style=" stroke:none;fill-rule:nonzero;fill:rgb(100%,100%,100%);fill-opacity:1;" d="M 48.296875 58.265625 C 48.753906 50.207031 52.71875 43.082031 58.726562 38.050781 C 64.609375 33.101562 72.507812 30.074219 81.175781 30.074219 C 89.804688 30.074219 97.703125 33.097656 103.582031 38.050781 C 109.59375 43.082031 113.539062 50.207031 114.011719 58.265625 C 114.46875 66.542969 111.117188 74.261719 105.257812 79.976562 C 99.246094 85.777344 90.75 89.445312 81.175781 89.445312 C 71.605469 89.445312 63.0625 85.804688 57.097656 79.976562 C 51.214844 74.261719 47.867188 66.585938 48.339844 58.308594 Z M 48.296875 58.265625 "/>
<path style=" stroke:none;fill-rule:nonzero;fill:rgb(14.901961%,34.117647%,52.941176%);fill-opacity:1;" d="M 66.28125 57.28125 C 66.515625 53.136719 68.554688 49.476562 71.640625 46.890625 C 74.664062 44.347656 78.722656 42.792969 83.179688 42.792969 C 87.613281 42.792969 91.671875 44.347656 94.691406 46.890625 C 97.78125 49.476562 99.808594 53.136719 100.050781 57.28125 C 100.285156 61.53125 98.5625 65.5 95.550781 68.4375 C 92.464844 71.417969 88.097656 73.300781 83.179688 73.300781 C 78.257812 73.300781 73.871094 71.429688 70.804688 68.4375 C 67.78125 65.5 66.0625 61.554688 66.304688 57.300781 Z M 66.28125 57.28125 "/>
<path style=" stroke:none;fill-rule:nonzero;fill:rgb(91.764706%,46.27451%,0%);fill-opacity:1;" d="M 39.8125 66.046875 C 39.839844 67.667969 40.363281 70.824219 41.140625 73.28125 C 42.785156 78.496094 45.574219 83.320312 49.4375 87.546875 C 53.40625 91.910156 58.304688 95.417969 63.949219 97.914062 C 69.882812 100.523438 76.324219 101.859375 83.007812 101.859375 C 89.691406 101.851562 96.132812 100.492188 102.066406 97.851562 C 107.710938 95.328125 112.609375 91.824219 116.578125 87.4375 C 120.460938 83.164062 123.242188 78.34375 124.875 73.125 C 125.699219 70.496094 126.222656 67.824219 126.433594 65.148438 C 126.636719 62.519531 126.550781 59.867188 126.175781 57.214844 C 125.4375 52.0625 123.636719 47.21875 120.882812 42.835938 C 118.367188 38.78125 115.101562 35.253906 111.21875 32.269531 L 111.230469 32.265625 L 72.1875 2.457031 C 72.152344 2.429688 72.121094 2.402344 72.085938 2.378906 C 69.527344 0.421875 65.203125 0.429688 62.402344 2.386719 C 59.554688 4.371094 59.226562 7.648438 61.761719 9.710938 L 61.75 9.71875 L 78.050781 22.894531 L 28.421875 22.945312 L 28.355469 22.945312 C 24.253906 22.949219 20.304688 25.621094 19.53125 29.015625 C 18.730469 32.457031 21.519531 35.328125 25.796875 35.328125 L 25.789062 35.34375 L 50.9375 35.296875 L 5.9375 69.488281 C 5.882812 69.53125 5.820312 69.574219 5.765625 69.617188 C 1.53125 72.835938 0.164062 78.207031 2.832031 81.582031 C 5.546875 85.023438 11.300781 85.046875 15.582031 81.601562 L 40.066406 61.65625 C 40.066406 61.65625 39.707031 64.351562 39.738281 65.953125 Z M 102.898438 75.054688 C 97.847656 80.164062 90.765625 83.078125 83.132812 83.078125 C 75.480469 83.089844 68.398438 80.226562 63.347656 75.121094 C 60.878906 72.621094 59.070312 69.773438 57.945312 66.726562 C 56.847656 63.722656 56.421875 60.546875 56.703125 57.34375 C 56.972656 54.210938 57.910156 51.207031 59.417969 48.511719 C 60.890625 45.859375 62.925781 43.449219 65.417969 41.410156 C 70.335938 37.445312 76.578125 35.273438 83.105469 35.273438 C 89.660156 35.265625 95.902344 37.398438 100.820312 41.367188 C 103.3125 43.394531 105.339844 45.792969 106.820312 48.445312 C 108.324219 51.144531 109.269531 54.125 109.53125 57.28125 C 109.808594 60.480469 109.382812 63.65625 108.289062 66.660156 C 107.167969 69.730469 105.355469 72.578125 102.882812 75.078125 Z M 102.898438 75.054688 "/>
</g>
</svg>
